src/assets/icons/months,simple,febuary-2.svg

<svg width="48" height="48" viewBox="0 0 48 48" fill="none" xmlns="http://www.w3.org/2000/svg">
<rect opacity="0.2" x="5" y="5" width="38" height="38" rx="4" fill="black"/>
<path d="M5 13C5 9.22876 5 7.34315 6.17157 6.17157C7.34315 5 9.22876 5 13 5H35C38.7712 5 40.6569 5 41.8284 6.17157C43 7.34315 43 9.22876 43 13V15H5V13Z" fill="black"/>
<path d="M10.1442 35H12.6044V30.1932H17.3374V28.1648H12.6044V25.392H17.8487V23.3636H10.1442V35ZM19.5036 35H27.3672V32.9716H21.9638V30.1932H26.9411V28.1648H21.9638V25.392H27.3445V23.3636H19.5036V35ZM29.3004 35H34.272C36.8857 35 38.2777 33.6364 38.2777 31.7841C38.2777 30.0625 37.0447 29.0227 35.7209 28.9602V28.8466C36.9311 28.5739 37.8232 27.7159 37.8232 26.3466C37.8232 24.6023 36.5277 23.3636 33.9595 23.3636H29.3004V35ZM31.7607 32.9886V29.8977H33.8232C35.005 29.8977 35.7379 30.5795 35.7379 31.5398C35.7379 32.4148 35.1413 32.9886 33.7663 32.9886H31.7607ZM31.7607 28.233V25.3523H33.63C34.7209 25.3523 35.3402 25.9148 35.3402 26.7557C35.3402 27.6761 34.5902 28.233 33.5845 28.233H31.7607Z" fill="black"/>
</svg>

<svg xmlns="http://www.w3.org/2000/svg" width="48" height="48" fill="none" viewBox="0 0 48 48">
  <rect width="38" height="38" x="5" y="5" fill="#000" opacity=".2" rx="4"/>
  <path fill="#000" d="M5 13c0-3.771 0-5.657 1.172-6.828C7.343 5 9.229 5 13 5h22c3.771 0 5.657 0 6.828 1.172C43 7.343 43 9.229 43 13v2H5v-2zM10.144 35h2.46v-4.807h4.733v-2.028h-4.733v-2.773h5.245v-2.028h-7.705V35zm9.36 0h7.863v-2.028h-5.403v-2.779h4.977v-2.028h-4.977v-2.773h5.38v-2.028h-7.84V35zm9.796 0h4.972c2.614 0 4.006-1.364 4.006-3.216 0-1.721-1.233-2.761-2.557-2.824v-.113c1.21-.273 2.102-1.131 2.102-2.5 0-1.745-1.295-2.983-3.864-2.983H29.3V35zm2.46-2.011v-3.091h2.063c1.182 0 1.915.681 1.915 1.642 0 .875-.597 1.449-1.972 1.449h-2.005zm0-4.756v-2.88h1.87c1.09 0 1.71.562 1.71 1.403 0 .92-.75 1.477-1.756 1.477h-1.823z"/>
</svg>
